X: 28920
T: Na Magha
R: reel
M: 4/4
K: Eminor
|:EB de B2 BG|AGAB AGED|EBde B2 BG|AGAB d4|
EB de B2 BG|AGAB AGE2|DEGA BGA/2B/2d|edBG AGED:|
|:E2GE GA Az|zG AB AGED|E2GE GA B/2c/2d|edBG AGED|
E2GE GA Az|zG AB AG B/2c/2d|edBG AE G/2A/2B|1 dBAG AGED:|2 dBAB defa||
|:g2ed ede/2f/2g|agfa gede|g2ed e2 B2|AGAB d2-da|
g2ed e2 a2|ge b2 ag e2|g2ed e2 B2|1 AGAB defa:|2 AGAB AGED||

